src/assets/img/banks-logo/svg/sparebank1-color.svg

<svg height="22" viewBox="0 0 100 22" width="100" xmlns="http://www.w3.org/2000/svg"><g fill="none" fill-rule="evenodd"><g fill="#153162"><path d="m4.27480315 16.9259561c-2.01929134 0-3.61929134-.4590945-3.91456693-.5510686-.15551181-.0613161-.23307087-.1835602-.23307087-.3213273v-.0764511l.20196851-1.0109392c.03110236-.1529022.13976378-.1986952.26417323-.1986952.03110236 0 .06220472 0 .10866141.015135.32637796.0613161 1.91062993.5052756 3.40196851.5052756 1.27362205 0 2.40748031-.3675085 2.40748031-1.6687289 0-1.3171317-1.16456693-1.4545107-2.67165354-1.669117-1.67755906-.2452644-3.83661417-.6892239-3.83661417-3.29244097 0-2.67928009 2.01929133-3.38363892 4.41141732-3.38363892 1.81771653 0 3.32440945.42882452 3.66574803.52041057.18661417.0461811.27992126.16881327.27992126.32171541v.07645107l-.21732283.9954162c-.01574804.10710911-.12440945.21421822-.2488189.21421822-.01535433 0-.03110236-.01513498-.04645669-.01513498-.7456693-.15329022-1.8952756-.45948257-3.26220473-.45948257-1.1496063 0-2.36102362.2146063-2.36102362 1.50069179 0 1.27095051 1.30472441 1.45451069 2.68740157 1.65359388 1.81732284.2755344 3.88307087.5359337 3.88307087 3.384027 0 2.6792801-2.20551181 3.46009-4.52007874 3.46009"/><path d="m23.3748031 12.8534814-1.9263779.3061924c-.6370079.091586-1.2271654.1835602-1.2271654 1.1785883 0 1.1944994.9787402 1.2864736 1.7244095 1.2864736.6055118 0 1.1027559-.1071092 1.4291338-.2146063zm.6366142 3.8889146c-.5437008.1226321-1.2893701.2142182-2.1590551.2142182-1.6775591 0-3.7437008-.1680371-3.7437008-2.602829 0-1.9753094 1.2582677-2.1891395 2.5011811-2.3886108l2.7649606-.4443476v-.4897526c0-.4288245-.0468503-.7350168-.4350393-.903442-.2488189-.1071091-.6216536-.15290217-1.1807087-.15290217-1.0562992 0-2.2059055.30619237-2.6716535.42843647-.0468504 0-.0775591.015523-.1086614.015523-.0779528 0-.1555119-.030658-.1712599-.1377671l-.2173228-.94923511v-.06131609c0-.13776715.1090551-.19908324.1866142-.22974128.3728346-.13776715 1.8015748-.52079865 3.3862204-.52079865 1.1027559 0 1.8484252.15329021 2.3456693.42882452.792126.42882452.9476378 1.14831831.9476378 1.97530931v4.226153c0 1.1483183-.3885827 1.3474016-1.4448819 1.5922779z"/><path d="m30.9980315 10.0969741c-.9472441 0-1.7551181.0919742-2.1901575.1990833v6.2321203c0 .1377672-.0933071.2297413-.2326771.2297413h-1.5846457c-.0933071 0-.2641732-.0919741-.2641732-.2297413v-6.61476375c0-.59724972.3570866-.7808099 1.1027559-.9954162.6834645-.21421822 1.7866141-.36712036 2.6720472-.38264342h.2637795c.2177166 0 .2177166 0 .326378.04579303.0622047.03065804.1397638.09197412.1397638.24487626v.9954162c0 .15329021-.0153544.27553428-.2330709.27553428"/><path d="m36.938189 11.0465973c-.2019685-.842126-.6677166-1.11804837-1.584252-1.11804837-1.0409449 0-1.4759842.30619237-1.6468504 1.07186727-.1086614.4288245-.1086614.8731721-.1240157 1.3780596l3.4795275-.015523c0-.4893645-.015748-.903054-.1244094-1.3163555zm2.1901575 2.2815017c0 .1680371-.0933071.3519854-.3259843.3519854h-5.203937c0 .7043588.2019685 1.0873903.6212598 1.4087176.403937.3213274.9940945.4590945 1.8330709.4590945.9633858 0 1.6929134-.2293532 2.1748032-.3675084.0311023-.015135.0464566-.015135.077559-.015135.0933071 0 .1708662.0613161.2177165.2146063l.2015748.7804218c0 .0155231.0157481.0465692.0157481.0768392 0 .1226321-.0775591.1835601-.1866142.2297412-.5279527.2142183-1.584252.4897526-2.8114173.4897526-3.0444882 0-4.2405512-1.1789764-4.2405512-4.1795838 0-2.87875143.8074803-4.25719913 3.8366142-4.25719913 1.5688976 0 2.5318897.39816648 3.0913386 1.13318335.5279527.68922388.6988189 1.66911698.6988189 2.93967938z"/><path d="m56.1625984 12.8534814-1.9259842.3061924c-.6370079.091586-1.2271654.1835602-1.2271654 1.1785883 0 1.1944994.9783465 1.2864736 1.7240158 1.2864736.6055118 0 1.1027559-.1071092 1.4291338-.2146063zm.6366142 3.8889146c-.5433071.1226321-1.2893701.2142182-2.1590551.2142182-1.6779528 0-3.7437008-.1680371-3.7437008-2.602829 0-1.9753094 1.2586614-2.1891395 2.5011811-2.3886108l2.7649606-.4443476v-.4897526c0-.4288245-.0468504-.7350168-.4350393-.903442-.2484252-.1071091-.6212599-.15290217-1.180315-.15290217-1.0566929 0-2.2062992.30619237-2.6720472.42843647-.0464567 0-.0779528.015523-.1086615.015523-.077559 0-.1551181-.030658-.1708661-.1377671l-.2173228-.94923511v-.06131609c0-.13776715.1082677-.19908324.1862204-.22974128.3728347-.13776715 1.8019685-.52079865 3.3862205-.52079865 1.1027559 0 1.8484252.15329021 2.3456693.42882452.7925197.42882452.9476378 1.14831831.9476378 1.97530931v4.226153c0 1.1483183-.3885827 1.3474016-1.4448819 1.5922779z"/><path d="m66.5511811 16.757919h-1.6c-.1401575 0-.2484252-.0919741-.2484252-.2297413v-5.4051293c0-.8883071-.3417323-1.19449947-1.1649606-1.19449947-.9322835 0-1.9417323.26039937-1.9417323.26039937v6.3392294c0 .1377672-.0933071.2297413-.2330709.2297413h-1.5846456c-.1555119 0-.2637796-.0919741-.2637796-.2297413v-6.59962877c0-.58172666.2948819-.7808099 1.1649607-1.01055118.7921259-.21421822 2.0968504-.39816648 3.0909448-.39816648 1.9417323 0 3.0137796.49014061 3.0137796 2.32729473v5.6810517c0 .1377672-.0933071.2297413-.2330709.2297413"/><path d="m75.5586614 16.6197638c0 .0613161-.061811.1381552-.1555118.1381552h-2.0814961c-.077559 0-.1551181 0-.2330708-.0919741l-2.4074803-3.2311249h-.5279528v3.0933577c0 .1377672-.0779527.2297413-.2330709.2297413h-1.6c-.13937 0-.2488189-.0919741-.2488189-.2297413v-10.70314958c0-.18356018.0779528-.27553431.264567-.32132733l1.5220472-.26039933h.0622047c.1397638 0 .2330709.09197413.2330709.26039933v6.55305961h.5279528l2.4547244-3.23073678c.061811-.09158605.1240157-.10672103.2015748-.10672103l1.8952756.04579302c.1086614 0 .1551181.07645107.1551181.13776716 0 .03065804-.0153544.04579302-.0311024.07645107l-2.9358268 3.64442636 3.1070867 3.9195725c.0153543.0155231.0307086.0461811.0307086.0764511"/><path d="m13.4767717 15.5478965c-.8385827 0-1.4755906-.1831721-1.4755906-.1831721v-5.1602531s.9165354-.24487625 1.6307087-.24487625c1.1807086 0 1.6933071.26001125 1.6933071 2.74059615 0 2.3272947-.4350394 2.8477053-1.8484252 2.8477053zm.5901574-7.02806523c-1.0405511 0-2.2366141.16881327-3.1685039.49014061-.6992126.21421822-.97874016.4439595-.97874016 1.24029242v9.4779922c0 .1529021.12165356.2782508.34566926.2382789.2236221-.0395838 1.4716536-.2669966 1.4716536-.2669966.1866141-.030658.2641732-.1226322.2641732-.3061923v-2.6695782c.5511811.1323341 1.2464567.2328459 2.0192913.2328459 2.8893701 0 3.4326772-1.7913611 3.4326772-4.2106299 0-2.4344039-.388189-4.22615303-3.3862205-4.22615303z"/><path d="m45.6755906 11.7812261-2.9200788-.0915861v3.4907481h2.9200788c1.5688976 0 2.081496-.6733127 2.081496-1.6078009 0-1.2550394-.4192913-1.7455681-2.081496-1.7913611zm.077559-4.76169854h-2.9976378v3.27652984l2.8893701-.1222441c1.180315-.0461811 1.7862205-.45948259 1.7862205-1.62293591 0-1.07225534-.5283465-1.53134983-1.6779528-1.53134983zm.2023622 9.73839144h-5.1728346c-.1401575 0-.2641733-.1074972-.2641733-.2448763v-10.82578173c0-.13776716.1240158-.24487627.2641733-.24487627h5.1881889c2.6267717 0 3.6968504 1.0152081 3.6968504 2.85391451 0 1.62293589-.9145669 2.20388639-2.3299212 2.60321709 1.5712598.2557424 2.7185039 1.0963161 2.7185039 2.9028122 0 2.0517604-1.4602362 2.9555905-4.1007874 2.9555905z"/></g><path d="m88.7929134.05083802c-1.1543307 0-2.2665354.17773903-3.3114173.50449944 4.3972441-.94030934 8.7559055.84523059 10.3259842 4.50246344 1.8145669 4.22692913-.7830709 9.3510911-5.8023622 11.4447638-4.5019685 1.8779021-9.4216535.6779696-11.6972441-2.6396963 1.3311024 4.4690889 5.5200788 7.7335883 10.4850394 7.7335883 6.0358268 0 10.9291338-4.8230146 10.9291338-10.7730034 0-5.94960066-4.893307-10.77261528-10.9291338-10.77261528" fill="#d8232a"/><path d="m90.0051181 16.5025647c5.0192913-2.0936727 7.6169291-7.21783467 5.8023622-11.4447638-1.5700787-3.65723285-5.9287401-5.44277278-10.3259842-4.50246344-4.4165355 1.38310461-7.6177166 5.45674353-7.6177166 10.26811584 0 1.0559561.1570866 2.075045.4440945 3.0394151 2.2755906 3.3176659 7.1952756 4.5175984 11.6972441 2.6396963" fill="#9f1e24"/><path d="m91.1893701 4.23197413h-2.5409449c-.1814961 0-.2834646.03997188-.4456693.09973566l-3.2787402 1.66368391c-.2019685.08033183-.2830708.19947132-.2830708.39933071v1.81270529c0 .21305399.1755905.38497187.3909449.38497187h2.0984252v8.68864453c.9582677-.1311698 1.9255905-.3826434 2.8748031-.7784814.561811-.2343982 1.0913386-.5083802 1.5893701-.8130203v-11.05901572c0-.21965129-.1818898-.39855455-.4051181-.39855455" fill="#fffffe"/></g></svg>

<?xml version="1.0" encoding="UTF-8"?>
<svg width="100px" height="22px" viewBox="0 0 100 22" version="1.1" xmlns="http://www.w3.org/2000/svg" xmlns:xlink="http://www.w3.org/1999/xlink">
    <!-- Generator: Sketch 47.1 (45422) - http://www.bohemiancoding.com/sketch -->
    <title>cmyk_SpareBank1_pos</title>
    <desc>Created with Sketch.</desc>
    <defs></defs>
    <g id="desktop" stroke="none" stroke-width="1" fill="none" fill-rule="evenodd">
        <g id="login" transform="translate(-590.000000, -273.000000)">
            <g id="cmyk_SpareBank1_pos" transform="translate(590.000000, 273.000000)">
                <path d="M4.27480315,16.9259561 C2.25551181,16.9259561 0.655511811,16.4668616 0.36023622,16.3748875 C0.204724409,16.3135714 0.127165354,16.1913273 0.127165354,16.0535602 L0.127165354,15.9771091 L0.329133858,14.9661699 C0.36023622,14.8132677 0.468897638,14.7674747 0.593307087,14.7674747 C0.624409449,14.7674747 0.655511811,14.7674747 0.701968504,14.7826097 C1.02834646,14.8439258 2.61259843,15.2878853 4.10393701,15.2878853 C5.37755906,15.2878853 6.51141732,14.9203768 6.51141732,13.6191564 C6.51141732,12.3020247 5.34685039,12.1646457 3.83976378,11.9500394 C2.16220472,11.704775 0.0031496063,11.2608155 0.0031496063,8.65759843 C0.0031496063,5.97831834 2.02244094,5.27395951 4.41456693,5.27395951 C6.23228346,5.27395951 7.73897638,5.70278403 8.08031496,5.79437008 C8.26692913,5.84055118 8.36023622,5.96318335 8.36023622,6.11608549 L8.36023622,6.19253656 L8.14291339,7.18795276 C8.12716535,7.29506187 8.01850394,7.40217098 7.89409449,7.40217098 C7.87874016,7.40217098 7.86299213,7.387036 7.8476378,7.387036 C7.1019685,7.23374578 5.9523622,6.92755343 4.58543307,6.92755343 C3.43582677,6.92755343 2.22440945,7.14215973 2.22440945,8.42824522 C2.22440945,9.69919573 3.52913386,9.88275591 4.91181102,10.0818391 C6.72913386,10.3573735 8.79488189,10.6177728 8.79488189,13.4658661 C8.79488189,16.1451462 6.58937008,16.9259561 4.27480315,16.9259561" id="Fill-1" fill="#153162"></path>
                <path d="M23.3748031,12.8534814 L21.4484252,13.1596738 C20.8114173,13.2512598 20.2212598,13.343234 20.2212598,14.3382621 C20.2212598,15.5327615 21.2,15.6247357 21.9456693,15.6247357 C22.5511811,15.6247357 23.0484252,15.5176265 23.3748031,15.4101294 L23.3748031,12.8534814 Z M24.0114173,16.742396 C23.4677165,16.8650281 22.7220472,16.9566142 21.8523622,16.9566142 C20.1748031,16.9566142 18.1086614,16.7885771 18.1086614,14.3537852 C18.1086614,12.3784758 19.3669291,12.1646457 20.6098425,11.9651744 L23.3748031,11.5208268 L23.3748031,11.0310742 C23.3748031,10.6022497 23.3279528,10.2960574 22.9397638,10.1276322 C22.6909449,10.0205231 22.3181102,9.97473003 21.7590551,9.97473003 C20.7027559,9.97473003 19.5531496,10.2809224 19.0874016,10.4031665 C19.0405512,10.4031665 19.0098425,10.4186895 18.9787402,10.4186895 C18.9007874,10.4186895 18.8232283,10.3880315 18.8074803,10.2809224 L18.5901575,9.33168729 L18.5901575,9.2703712 C18.5901575,9.13260405 18.6992126,9.07128796 18.7767717,9.04062992 C19.1496063,8.90286277 20.5783465,8.51983127 22.1629921,8.51983127 C23.265748,8.51983127 24.0114173,8.67312148 24.5086614,8.94865579 C25.3007874,9.37748031 25.4562992,10.0969741 25.4562992,10.9239651 L25.4562992,15.1501181 C25.4562992,16.2984364 25.0677165,16.4975197 24.0114173,16.742396 L24.0114173,16.742396 Z" id="Fill-2" fill="#153162"></path>
                <path d="M30.9980315,10.0969741 C30.0507874,10.0969741 29.2429134,10.1889483 28.807874,10.2960574 L28.807874,16.5281777 C28.807874,16.6659449 28.7145669,16.757919 28.5751969,16.757919 L26.9905512,16.757919 C26.8972441,16.757919 26.726378,16.6659449 26.726378,16.5281777 L26.726378,9.91341395 C26.726378,9.31616423 27.0834646,9.13260405 27.8291339,8.91799775 C28.5125984,8.70377953 29.615748,8.55087739 30.5011811,8.53535433 L30.7649606,8.53535433 C30.9826772,8.53535433 30.9826772,8.53535433 31.0913386,8.58114736 C31.1535433,8.6118054 31.2311024,8.67312148 31.2311024,8.82602362 L31.2311024,9.82143982 C31.2311024,9.97473003 31.215748,10.0969741 30.9980315,10.0969741" id="Fill-3" fill="#153162"></path>
                <path d="M36.938189,11.0465973 C36.7362205,10.2044713 36.2704724,9.92854893 35.353937,9.92854893 C34.3129921,9.92854893 33.8779528,10.2347413 33.7070866,11.0004162 C33.5984252,11.4292407 33.5984252,11.8735883 33.5830709,12.3784758 L37.0625984,12.3629528 C37.0625984,11.8735883 37.0468504,11.4598988 36.938189,11.0465973 Z M39.1283465,13.328099 C39.1283465,13.4961361 39.0350394,13.6800844 38.8023622,13.6800844 L33.5984252,13.6800844 C33.5984252,14.3844432 33.8003937,14.7674747 34.219685,15.088802 C34.623622,15.4101294 35.2137795,15.5478965 36.0527559,15.5478965 C37.0161417,15.5478965 37.7456693,15.3185433 38.2275591,15.1803881 C38.2586614,15.1652531 38.2740157,15.1652531 38.3051181,15.1652531 C38.3984252,15.1652531 38.4759843,15.2265692 38.5228346,15.3798594 L38.7244094,16.1602812 C38.7244094,16.1758043 38.7401575,16.2068504 38.7401575,16.2371204 C38.7401575,16.3597525 38.6625984,16.4206805 38.5535433,16.4668616 C38.0255906,16.6810799 36.9692913,16.9566142 35.742126,16.9566142 C32.6976378,16.9566142 31.5015748,15.7776378 31.5015748,12.7770304 C31.5015748,9.89827897 32.3090551,8.51983127 35.338189,8.51983127 C36.9070866,8.51983127 37.8700787,8.91799775 38.4295276,9.65301462 C38.9574803,10.3422385 39.1283465,11.3221316 39.1283465,12.592694 L39.1283465,13.328099 L39.1283465,13.328099 Z" id="Fill-4" fill="#153162"></path>
                <path d="M56.1625984,12.8534814 L54.2366142,13.1596738 C53.5996063,13.2512598 53.0094488,13.343234 53.0094488,14.3382621 C53.0094488,15.5327615 53.9877953,15.6247357 54.7334646,15.6247357 C55.3389764,15.6247357 55.8362205,15.5176265 56.1625984,15.4101294 L56.1625984,12.8534814 Z M56.7992126,16.742396 C56.2559055,16.8650281 55.5098425,16.9566142 54.6401575,16.9566142 C52.9622047,16.9566142 50.8964567,16.7885771 50.8964567,14.3537852 C50.8964567,12.3784758 52.1551181,12.1646457 53.3976378,11.9651744 L56.1625984,11.5208268 L56.1625984,11.0310742 C56.1625984,10.6022497 56.115748,10.2960574 55.7275591,10.1276322 C55.4791339,10.0205231 55.1062992,9.97473003 54.5472441,9.97473003 C53.4905512,9.97473003 52.3409449,10.2809224 51.8751969,10.4031665 C51.8287402,10.4031665 51.7972441,10.4186895 51.7665354,10.4186895 C51.6889764,10.4186895 51.6114173,10.3880315 51.5956693,10.2809224 L51.3783465,9.33168729 L51.3783465,9.2703712 C51.3783465,9.13260405 51.4866142,9.07128796 51.5645669,9.04062992 C51.9374016,8.90286277 53.3665354,8.51983127 54.9507874,8.51983127 C56.0535433,8.51983127 56.7992126,8.67312148 57.2964567,8.94865579 C58.0889764,9.37748031 58.2440945,10.0969741 58.2440945,10.9239651 L58.2440945,15.1501181 C58.2440945,16.2984364 57.8555118,16.4975197 56.7992126,16.742396 L56.7992126,16.742396 Z" id="Fill-5" fill="#153162"></path>
                <path d="M66.5511811,16.757919 L64.9511811,16.757919 C64.8110236,16.757919 64.7027559,16.6659449 64.7027559,16.5281777 L64.7027559,11.1230484 C64.7027559,10.2347413 64.3610236,9.92854893 63.5377953,9.92854893 C62.6055118,9.92854893 61.596063,10.1889483 61.596063,10.1889483 L61.596063,16.5281777 C61.596063,16.6659449 61.5027559,16.757919 61.3629921,16.757919 L59.7783465,16.757919 C59.6228346,16.757919 59.5145669,16.6659449 59.5145669,16.5281777 L59.5145669,9.92854893 C59.5145669,9.34682227 59.8094488,9.14773903 60.6795276,8.91799775 C61.4716535,8.70377953 62.776378,8.51983127 63.7704724,8.51983127 C65.7122047,8.51983127 66.784252,9.00997188 66.784252,10.847126 L66.784252,16.5281777 C66.784252,16.6659449 66.6909449,16.757919 66.5511811,16.757919" id="Fill-6" fill="#153162"></path>
                <path d="M75.5586614,16.6197638 C75.5586614,16.6810799 75.4968504,16.757919 75.4031496,16.757919 L73.3216535,16.757919 C73.2440945,16.757919 73.1665354,16.757919 73.0885827,16.6659449 L70.6811024,13.43482 L70.1531496,13.43482 L70.1531496,16.5281777 C70.1531496,16.6659449 70.0751969,16.757919 69.9200787,16.757919 L68.3200787,16.757919 C68.1807087,16.757919 68.0712598,16.6659449 68.0712598,16.5281777 L68.0712598,5.82502812 C68.0712598,5.64146794 68.1492126,5.54949381 68.3358268,5.50370079 L69.857874,5.24330146 L69.9200787,5.24330146 C70.0598425,5.24330146 70.1531496,5.33527559 70.1531496,5.50370079 L70.1531496,12.0567604 L70.6811024,12.0567604 L73.1358268,8.82602362 C73.1976378,8.73443757 73.2598425,8.71930259 73.3374016,8.71930259 L75.2326772,8.76509561 C75.3413386,8.76509561 75.3877953,8.84154668 75.3877953,8.90286277 C75.3877953,8.93352081 75.3724409,8.94865579 75.3566929,8.97931384 L72.4208661,12.6237402 L75.5279528,16.5433127 C75.5433071,16.5588358 75.5586614,16.5894938 75.5586614,16.6197638" id="Fill-7" fill="#153162"></path>
                <path d="M13.4767717,15.5478965 C12.638189,15.5478965 12.0011811,15.3647244 12.0011811,15.3647244 L12.0011811,10.2044713 C12.0011811,10.2044713 12.9177165,9.95959505 13.6318898,9.95959505 C14.8125984,9.95959505 15.3251969,10.2196063 15.3251969,12.7001912 C15.3251969,15.0274859 14.8901575,15.5478965 13.4767717,15.5478965 Z M14.0669291,8.51983127 C13.026378,8.51983127 11.830315,8.68864454 10.8984252,9.00997188 C10.1992126,9.2241901 9.91968504,9.45393138 9.91968504,10.2502643 L9.91968504,19.7282565 C9.91968504,19.8811586 10.0413386,20.0065073 10.2653543,19.9665354 C10.4889764,19.9269516 11.7370079,19.6995388 11.7370079,19.6995388 C11.923622,19.6688808 12.0011811,19.5769066 12.0011811,19.3933465 L12.0011811,16.7237683 C12.5523622,16.8561024 13.2476378,16.9566142 14.0204724,16.9566142 C16.9098425,16.9566142 17.4531496,15.1652531 17.4531496,12.7459843 C17.4531496,10.3115804 17.0649606,8.51983127 14.0669291,8.51983127 L14.0669291,8.51983127 Z" id="Fill-8" fill="#153162"></path>
                <path d="M45.6755906,11.7812261 L42.7555118,11.68964 L42.7555118,15.1803881 L45.6755906,15.1803881 C47.2444882,15.1803881 47.7570866,14.5070754 47.7570866,13.5725872 C47.7570866,12.3175478 47.3377953,11.8270191 45.6755906,11.7812261 Z M45.7531496,7.01952756 L42.7555118,7.01952756 L42.7555118,10.2960574 L45.6448819,10.1738133 C46.8251969,10.1276322 47.4311024,9.71433071 47.4311024,8.55087739 C47.4311024,7.47862205 46.9027559,7.01952756 45.7531496,7.01952756 Z M45.9555118,16.757919 L40.7826772,16.757919 C40.6425197,16.757919 40.5185039,16.6504218 40.5185039,16.5130427 L40.5185039,5.68726097 C40.5185039,5.54949381 40.6425197,5.4423847 40.7826772,5.4423847 L45.9708661,5.4423847 C48.5976378,5.4423847 49.6677165,6.4575928 49.6677165,8.29629921 C49.6677165,9.9192351 48.7531496,10.5001856 47.3377953,10.8995163 C48.9090551,11.1552587 50.0562992,11.9958324 50.0562992,13.8023285 C50.0562992,15.8540889 48.596063,16.757919 45.9555118,16.757919 L45.9555118,16.757919 Z" id="Fill-9" fill="#153162"></path>
                <path d="M88.7929134,0.0508380202 C87.6385827,0.0508380202 86.526378,0.228577053 85.4814961,0.555337458 C89.8787402,-0.384971879 94.2374016,1.40056805 95.8074803,5.0578009 C97.6220472,9.28473003 95.0244094,14.408892 90.0051181,16.5025647 C85.5031496,18.3804668 80.5834646,17.1805343 78.307874,13.8628684 C79.6389764,18.3319573 83.8279528,21.5964567 88.7929134,21.5964567 C94.8287402,21.5964567 99.7220472,16.7734421 99.7220472,10.8234533 C99.7220472,4.87385264 94.8287402,0.0508380202 88.7929134,0.0508380202" id="Fill-10" fill="#D8232A"></path>
                <path d="M90.0051181,16.5025647 C95.0244094,14.408892 97.6220472,9.28473003 95.8074803,5.0578009 C94.2374016,1.40056805 89.8787402,-0.384971879 85.4814961,0.555337458 C81.0649606,1.93844207 77.8637795,6.01208099 77.8637795,10.8234533 C77.8637795,11.8794094 78.0208661,12.8984983 78.307874,13.8628684 C80.5834646,17.1805343 85.5031496,18.3804668 90.0051181,16.5025647" id="Fill-11" fill="#9F1E24"></path>
                <path d="M91.1893701,4.23197413 L88.6484252,4.23197413 C88.4669291,4.23197413 88.3649606,4.27194601 88.2027559,4.33170979 L84.9240157,5.9953937 C84.7220472,6.07572553 84.6409449,6.19486502 84.6409449,6.39472441 L84.6409449,8.2074297 C84.6409449,8.42048369 84.8165354,8.59240157 85.0318898,8.59240157 L87.130315,8.59240157 L87.130315,17.2810461 C88.0885827,17.1498763 89.0559055,16.8984027 90.0051181,16.5025647 C90.5669291,16.2681665 91.0964567,15.9941845 91.5944882,15.6895444 L91.5944882,4.63052868 C91.5944882,4.41087739 91.4125984,4.23197413 91.1893701,4.23197413" id="Fill-12" fill="#FFFFFE"></path>
            </g>
        </g>
    </g>
</svg>
